X:257
T:Up Before Breakfast Reel
R:reel
C:Bruce Osborne - Nov. 2002
Z:bosborne@kos.net
M:2/4
L:1/8
K:Cmaj
G/F/|E/C/G,/C/ E/C/E/G/|c/A/G/E/ CD/E/|F/D/B,/D/ G,/B,/D/B,/|C/B,/C/D/ EG/F/|\
E/C/G,/C/ E/C/E/G/|c/A/G/E/ CD/E/|F/D/B,/D/ G,/B,/D/B,/|C/B,/C/D/ C:|
|:E/F/|G/c/B/c/ e/c/B/c/|A/d/^c/d/ f/d/^c/d/|B/G/^F/G/ B/G/^F/D/|C/B,/C/D/ EE/F/|\
G/c/B/c/ e/c/B/c/|A/d/^c/d/ f/d/^c/d/|B/G/^F/G/ B/G/^F/D/|C/B,/C/D/ C:|
